X:1
T:Castellón, CMD
T:Castellón, CMD
T:Isaiah Baltzell, 1883
T:Public Domain Courtesy of the Cyber Hymnal™
C:Isaiah Baltzell, 1883
Z:Public Domain
Z:Courtesy of the Cyber Hymnal™
%%score ( 1 2 ) 3
L:1/8
Q:1/4=102
M:3/4
K:G
V:1 treble 
V:2 treble 
V:3 bass 
V:1
 [DG]2 | [GB]>[GA] G2 [GB]2 | [Bd]>[Ac] [GB]2 [DG]2 | [EG]3 [EG] [^DF][EG] | [FA]4 [DG]2 | %5
 [GB]>[Gc] [Bd]2 [GB]2 | [EA]>[EG] [CE]2 [Ec]2 | [DB]3 [DG] [GB][FA] | G4 (Bc) | %9
 [Gd]>[GB] [Ge]2 [Gd]2 | [GB]>[FA] [DG]2 [GB]2 | [FA]3 [GB] [Ac][GB] | [FA]4 [Fd]2 | %13
 [GB]>[DA] [DG]2 [GB]2 | [Gc]>[Gd] !fermata![Ge]2 !fermata![Ge]2 | [Gd]3 [Gc] [GB][FA] | G4 |] %17
V:2
 x2 | x2 G2 x2 | x6 | x6 | x6 | x6 | x6 | x6 | G4 G2 | x6 | x6 | x6 | x6 | x6 | x6 | x6 | G4 |] %17
V:3
 [G,B,]2 | [G,D]>[G,C] [G,B,]2 [G,D]2 | [G,D]>[G,D] [G,D]2 [G,B,]2 | [E,B,]3 [E,B,] [B,,B,][E,B,] | %4
 [D,D]4 [G,B,]2 | [G,D]>[G,D] [G,D]2 [G,D]2 | [C,C]>[C,C] [C,G,]2 [C,G,]2 | %7
 [D,G,]3 [D,B,] [D,D][D,C] | [G,B,]4 [G,D]2 | [G,B,]>[G,D] [G,C]2 [G,B,]2 | %10
 [D,D]>[D,C] [G,B,]2 [G,D]2 | [D,D]3 [G,D] [F,D][G,D] | [D,D]4 [D,D]2 | %13
 [G,D]>[G,C] [G,B,]2 [=F,D]2 | [E,C]>[D,B,] !fermata![C,C]2 !fermata![C,C]2 | %15
 [D,B,]3 [D,E] [D,D][D,C] | [G,B,]4 |] %17

